public/cloud-icons/azure/management/scom-managed-instance.svg

<svg xmlns="http://www.w3.org/2000/svg" xmlns:xlink="http://www.w3.org/1999/xlink" xml:space="preserve" width="75.576" height="75.235" style="font-size:12px;overflow:visible;color-interpolation-filters:sRGB;fill-rule:evenodd;stroke-linecap:square;stroke-miterlimit:3" viewBox="0 0 56.682 56.426"><defs><linearGradient id="b" x1="0" x2="19.32" y1="100.209" y2="100.209" gradientTransform="scale(1.24018 .80633)" gradientUnits="userSpaceOnUse"><stop offset="0" stop-color="#8bb6e1"/><stop offset="1" stop-color="#6a9dd3"/></linearGradient><linearGradient id="c" x1="0" x2="28.708" y1="38.337" y2="38.337" gradientTransform="scale(.69563 1.43755)" gradientUnits="userSpaceOnUse"><stop offset=".15" stop-color="#8bb6e1"/><stop offset="1" stop-color="#6a9dd3"/></linearGradient><linearGradient id="d" x1="0" x2="29.809" y1="40.781" y2="40.781" gradientTransform="scale(.73241 1.36536)" gradientUnits="userSpaceOnUse"><stop offset=".19" stop-color="#6a9dd3"/><stop offset="1" stop-color="#2f76bc"/></linearGradient><linearGradient id="e" x1="0" x2="22.757" y1="76.132" y2="76.132" gradientTransform="scale(1.02604 .97462)" gradientUnits="userSpaceOnUse"><stop offset=".44" stop-color="#6a9dd3"/><stop offset="1" stop-color="#2f76bc"/></linearGradient><linearGradient id="a" x1="0" x2="1" y1="0" y2="0" gradientTransform="rotate(90 .5 .5)"><stop offset="0" stop-color="#2f76bc"/><stop offset="1" stop-color="#015ca2"/></linearGradient><linearGradient id="h" x1="0" x2="24.757" y1="71.291" y2="71.291" gradientTransform="scale(.99657 1.00344)" gradientUnits="userSpaceOnUse"><stop offset=".15" stop-color="#fff"/><stop offset="1" stop-color="#f3f3f3"/></linearGradient><linearGradient xlink:href="#a" id="f" x1="0" x2="25.639" y1="58.527" y2="58.527" gradientTransform="scale(.87327 1.14512)" gradientUnits="userSpaceOnUse"/><linearGradient xlink:href="#a" id="g" x1="0" x2="16.038" y1="75.801" y2="75.801" gradientTransform="scale(.95335 1.04893)" gradientUnits="userSpaceOnUse"/></defs><g transform="translate(-5.67 -5.938)"><title>Page-1</title><g transform="translate(5.67 -34.016)"><title>SCOM Managed Instance.12988</title><title>Sheet.12989</title><g transform="translate(21.673 -40.848)"><title>Sheet.12990</title><path d="M23.96 96.33c-2.96-.52-5.98-.49-8.92.05C11.36 90.44 6.17 85.62 0 82.44a16.05 16.05 0 0 1 7.42-1.63c8.79-.28 16.15 6.64 16.54 15.52" style="fill:url(#b);stroke:none;stroke-width:1.22644997;stroke-linecap:butt"/></g><g transform="translate(36.712)"><title>Sheet.12991</title><path d="M19.97 82.1c-.02 7.89-6.36 14.28-14.18 14.28a13.517 13.673 0 0 1-1.92-.14A39.1 39.1 0 0 0 7.5 80.43c.1-4.29-.51-8.55-1.83-12.62A50.4 50.4 0 0 0 0 55.53c2.94-.54 5.96-.56 8.92-.05 6.19.83 10.87 6.08 11.05 12.39-.08 2.39-.82 4.71-2.12 6.71 1.39 2.25 2.13 4.85 2.12 7.52" style="fill:url(#c);stroke:none;stroke-width:1.22644997;stroke-linecap:butt"/></g><g transform="translate(22.389 -.138)"><title>Sheet.12992</title><path d="M21.82 80.57a39.2 39.2 0 0 1-3.62 15.81c-.41-.06-.82-.13-1.22-.22-6.44-1.48-11.01-7.25-11.03-13.93 0-.51.02-1.03.09-1.54H4.67A56.2 56.2 0 0 0 0 63.92c1.45-1.48 3.01-2.86 4.67-4.1 2.85-2.13 6.16-3.54 9.65-4.14a50.4 50.4 0 0 1 5.67 12.28c1.32 4.06 1.94 8.33 1.83 12.61" style="fill:url(#d);stroke:none;stroke-width:1.22644997;stroke-linecap:butt"/></g><g transform="translate(13.358 -32.598)"><title>Sheet.12993</title><path d="M23.35 88.13c-3.49.6-6.8 2.01-9.65 4.13a40.6 40.6 0 0 0-4.67 4.12c-.19-.43-.4-.85-.6-1.28A38.3 38.3 0 0 0 0 83.42c1.49-4.05 4.46-7.36 8.31-9.22 6.17 3.17 11.36 7.99 15.04 13.93" style="fill:url(#e);stroke:none;stroke-width:1.22644997;stroke-linecap:butt"/></g><g transform="translate(0 -16.213)"><title>Sheet.12994</title><path d="M22.39 79.99a55.1 55.1 0 0 0-10.62 16.39C5.07 94.73.27 88.79 0 81.82c.23-7.6 5.91-13.89 13.37-14.8 3.52 3.32 6.37 7.3 8.42 11.7.2.42.39.85.6 1.27" style="fill:url(#f);stroke:none;stroke-width:1.22644997;stroke-linecap:butt"/></g><g transform="translate(11.757 -15.719)"><title>Sheet.12995</title><path d="m15.29 96.27-11.09.05c-1.41.06-2.83-.09-4.2-.42a54.7 54.7 0 0 1 10.62-16.39c2.42 5.3 4 10.96 4.67 16.76" style="fill:url(#g);stroke:none;stroke-width:1.22644997;stroke-linecap:butt"/></g><g transform="translate(30.18 -1.861)"><title>Sheet.12996</title><ellipse cx="12.336" cy="83.957" rx="12.336" ry="12.421" style="fill:url(#h);stroke:none;stroke-width:1.22644997;stroke-linecap:butt"/></g><g transform="translate(32.044 -6.802)"><title>Sheet.12997</title><path d="M0 89.63a10.63 10.63 0 0 0 3.03 6.75L6.37 93a6.04 6.04 0 0 1-1.67-3.38H0Zm17.36-8.71a10.45 10.45 0 0 0-6.16-2.58v4.7c1.05.11 2.02.53 2.85 1.18zm-13.77 0 3.34 3.38a5.67 5.67 0 0 1 2.85-1.18v-4.78c-2.29.15-4.46 1.06-6.19 2.58m11.52 4.35a6.2 6.2 0 0 1 1.18 2.88h4.66c-.15-2.29-1.05-4.47-2.56-6.18Zm-9.27 0L2.5 81.89A10.45 10.45 0 0 0 0 88.15h4.66c.13-1.04.54-2.04 1.18-2.88" style="fill:#8bb6e1;stroke:none;stroke-width:1.22644997;stroke-linecap:butt"/></g><g transform="translate(43.267 -13.915)"><title>Sheet.12998</title><path d="M7.82 92.63a.75.75 0 0 0-.95-.42L0 95.01l.53 1.37 6.88-2.75c.37-.14.58-.56.43-.95z" style="fill:#ef414a;stroke:none;stroke-width:1.22644997;stroke-linecap:butt"/></g><g transform="translate(40.518 -12.26)"><title>Sheet.12999</title><ellipse cx="1.999" cy="94.356" rx="1.999" ry="2.022" style="fill:#505050;stroke:none;stroke-width:1.22644997;stroke-linecap:butt"/></g></g></g></svg>

<?xml version="1.0" encoding="UTF-8" standalone="no"?>
<!-- Generated by Microsoft Visio, SVG Export SCOM Managed Instance.svg Page-1 -->

<svg
   xmlns:dc="http://purl.org/dc/elements/1.1/"
   xmlns:cc="http://creativecommons.org/ns#"
   xmlns:rdf="http://www.w3.org/1999/02/22-rdf-syntax-ns#"
   xmlns:svg="http://www.w3.org/2000/svg"
   xmlns="http://www.w3.org/2000/svg"
   xmlns:xlink="http://www.w3.org/1999/xlink"
   xmlns:sodipodi="http://sodipodi.sourceforge.net/DTD/sodipodi-0.dtd"
   xmlns:inkscape="http://www.inkscape.org/namespaces/inkscape"
   width="0.78725499in"
   height="0.78369397in"
   viewBox="0 0 56.682357 56.426106"
   xml:space="preserve"
   class="st10"
   version="1.1"
   id="svg95"
   sodipodi:docname="SCOM Managed Instance.svg"
   style="font-size:12px;overflow:visible;color-interpolation-filters:sRGB;fill:none;fill-rule:evenodd;stroke-linecap:square;stroke-miterlimit:3"
   inkscape:version="0.92.5 (2060ec1f9f, 2020-04-08)"><metadata
   id="metadata99"><rdf:RDF><cc:Work
       rdf:about=""><dc:format>image/svg+xml</dc:format><dc:type
         rdf:resource="http://purl.org/dc/dcmitype/StillImage" /></cc:Work></rdf:RDF></metadata><sodipodi:namedview
   pagecolor="#ffffff"
   bordercolor="#666666"
   borderopacity="1"
   objecttolerance="10"
   gridtolerance="10"
   guidetolerance="10"
   inkscape:pageopacity="0"
   inkscape:pageshadow="2"
   inkscape:window-width="640"
   inkscape:window-height="480"
   id="namedview97"
   showgrid="false"
   inkscape:zoom="1.8365233"
   inkscape:cx="37.795184"
   inkscape:cy="18.900351"
   inkscape:window-x="0"
   inkscape:window-y="0"
   inkscape:window-maximized="0"
   inkscape:current-layer="svg95" />
	<style
   type="text/css"
   id="style2">
	<![CDATA[
		.st1 {fill:url(#grad0-6);stroke:none;stroke-linecap:butt;stroke-width:1.22645}
		.st2 {fill:url(#grad0-10);stroke:none;stroke-linecap:butt;stroke-width:1.22645}
		.st3 {fill:url(#grad0-14);stroke:none;stroke-linecap:butt;stroke-width:1.22645}
		.st4 {fill:url(#grad0-18);stroke:none;stroke-linecap:butt;stroke-width:1.22645}
		.st5 {fill:url(#grad0-22);stroke:none;stroke-linecap:butt;stroke-width:1.22645}
		.st6 {fill:url(#grad0-29);stroke:none;stroke-linecap:butt;stroke-width:1.22645}
		.st7 {fill:#8bb6e1;stroke:none;stroke-linecap:butt;stroke-width:1.22645}
		.st8 {fill:#ef414a;stroke:none;stroke-linecap:butt;stroke-width:1.22645}
		.st9 {fill:#505050;stroke:none;stroke-linecap:butt;stroke-width:1.22645}
		.st10 {fill:none;fill-rule:evenodd;font-size:12px;overflow:visible;stroke-linecap:square;stroke-miterlimit:3}
	]]>
	</style>

	<defs
   id="Patterns_And_Gradients">
		<linearGradient
   id="grad0-6"
   x1="0"
   y1="100.20876"
   x2="19.319778"
   y2="100.20876"
   gradientTransform="scale(1.2401799,0.80633462)"
   gradientUnits="userSpaceOnUse">
			<stop
   offset="0"
   stop-color="#8bb6e1"
   stop-opacity="1"
   id="stop4" />
			<stop
   offset="1"
   stop-color="#6a9dd3"
   stop-opacity="1"
   id="stop6" />
		</linearGradient>
		<linearGradient
   id="grad0-10"
   x1="0"
   y1="38.336634"
   x2="28.708009"
   y2="38.336634"
   gradientTransform="scale(0.69562817,1.4375496)"
   gradientUnits="userSpaceOnUse">
			<stop
   offset="0.15"
   stop-color="#8bb6e1"
   stop-opacity="1"
   id="stop9" />
			<stop
   offset="1"
   stop-color="#6a9dd3"
   stop-opacity="1"
   id="stop11" />
		</linearGradient>
		<linearGradient
   id="grad0-14"
   x1="0"
   y1="40.780562"
   x2="29.809067"
   y2="40.780562"
   gradientTransform="scale(0.73240951,1.3653564)"
   gradientUnits="userSpaceOnUse">
			<stop
   offset="0.19"
   stop-color="#6a9dd3"
   stop-opacity="1"
   id="stop14" />
			<stop
   offset="1"
   stop-color="#2f76bc"
   stop-opacity="1"
   id="stop16" />
		</linearGradient>
		<linearGradient
   id="grad0-18"
   x1="0"
   y1="76.131884"
   x2="22.757482"
   y2="76.131884"
   gradientTransform="scale(1.0260362,0.97462451)"
   gradientUnits="userSpaceOnUse">
			<stop
   offset="0.44"
   stop-color="#6a9dd3"
   stop-opacity="1"
   id="stop19" />
			<stop
   offset="1"
   stop-color="#2f76bc"
   stop-opacity="1"
   id="stop21" />
		</linearGradient>
		<linearGradient
   id="grad0-22"
   x1="0"
   y1="0"
   x2="1"
   y2="0"
   gradientTransform="rotate(90,0.5,0.5)">
			<stop
   offset="0"
   stop-color="#2f76bc"
   stop-opacity="1"
   id="stop24" />
			<stop
   offset="1"
   stop-color="#015ca2"
   stop-opacity="1"
   id="stop26" />
		</linearGradient>
		<linearGradient
   id="grad0-29"
   x1="0"
   y1="71.290525"
   x2="24.756754"
   y2="71.290525"
   gradientTransform="scale(0.99656849,1.0034433)"
   gradientUnits="userSpaceOnUse">
			<stop
   offset="0.15"
   stop-color="#ffffff"
   stop-opacity="1"
   id="stop29" />
			<stop
   offset="1"
   stop-color="#f3f3f3"
   stop-opacity="1"
   id="stop31" />
		</linearGradient>
	<linearGradient
   inkscape:collect="always"
   xlink:href="#grad0-22"
   id="linearGradient4609"
   gradientTransform="scale(0.87327097,1.1451199)"
   x1="0"
   y1="58.52662"
   x2="25.639236"
   y2="58.52662"
   gradientUnits="userSpaceOnUse" /><linearGradient
   inkscape:collect="always"
   xlink:href="#grad0-22"
   id="linearGradient4611"
   gradientTransform="scale(0.95335076,1.0489319)"
   x1="0"
   y1="75.800919"
   x2="16.038168"
   y2="75.800919"
   gradientUnits="userSpaceOnUse" /></defs>
	<g
   id="g93"
   transform="translate(-5.6693772,-5.9381944)">
		<title
   id="title35">Page-1</title>
		<g
   id="group12988-1"
   transform="translate(5.66929,-34.0157)">
			<title
   id="title37">SCOM Managed Instance.12988</title>
			<g
   id="group12989-2">
				<title
   id="title39">Sheet.12989</title>
				<g
   id="shape12990-3"
   transform="translate(21.673,-40.8479)">
					<title
   id="title41">Sheet.12990</title>
					<path
   d="M 23.96,96.33 C 21,95.81 17.98,95.84 15.04,96.38 11.36,90.44 6.17,85.62 0,82.44 c 2.32,-1.13 4.85,-1.69 7.42,-1.63 8.79,-0.28 16.15,6.64 16.54,15.52 z"
   class="st1"
   id="path43"
   inkscape:connector-curvature="0"
   style="fill:url(#grad0-6);stroke:none;stroke-width:1.22644997;stroke-linecap:butt" />
				</g>
				<g
   id="shape12991-7"
   transform="translate(36.7124)">
					<title
   id="title46">Sheet.12991</title>
					<path
   d="M 19.97,82.1 C 19.95,89.99 13.61,96.38 5.79,96.38 A 13.5172,13.6734 0 0 1 3.87,96.24 C 6.17,91.29 7.41,85.9 7.5,80.43 7.6,76.14 6.99,71.88 5.67,67.81 4.34,63.48 2.43,59.34 0,55.53 c 2.94,-0.54 5.96,-0.56 8.92,-0.05 6.19,0.83 10.87,6.08 11.05,12.39 -0.08,2.39 -0.82,4.71 -2.12,6.71 1.39,2.25 2.13,4.85 2.12,7.52 z"
   class="st2"
   id="path48"
   inkscape:connector-curvature="0"
   style="fill:url(#grad0-10);stroke:none;stroke-width:1.22644997;stroke-linecap:butt" />
				</g>
				<g
   id="shape12992-11"
   transform="translate(22.3886,-0.137883)">
					<title
   id="title51">Sheet.12992</title>
					<path
   d="M 21.82,80.57 C 21.73,86.04 20.49,91.43 18.2,96.38 17.79,96.32 17.38,96.25 16.98,96.16 10.54,94.68 5.97,88.91 5.95,82.23 5.95,81.72 5.97,81.2 6.04,80.69 H 4.67 C 3.99,74.89 2.42,69.23 0,63.92 c 1.45,-1.48 3.01,-2.86 4.67,-4.1 2.85,-2.13 6.16,-3.54 9.65,-4.14 2.43,3.81 4.34,7.95 5.67,12.28 1.32,4.06 1.94,8.33 1.83,12.61 z"
   class="st3"
   id="path53"
   inkscape:connector-curvature="0"
   style="fill:url(#grad0-14);stroke:none;stroke-width:1.22644997;stroke-linecap:butt" />
				</g>
				<g
   id="shape12993-15"
   transform="translate(13.3582,-32.5979)">
					<title
   id="title56">Sheet.12993</title>
					<path
   d="m 23.35,88.13 c -3.49,0.6 -6.8,2.01 -9.65,4.13 -1.66,1.26 -3.22,2.62 -4.67,4.12 C 8.84,95.95 8.63,95.53 8.43,95.1 6.38,90.7 3.52,86.74 0,83.42 1.49,79.37 4.46,76.06 8.31,74.2 c 6.17,3.17 11.36,7.99 15.04,13.93 z"
   class="st4"
   id="path58"
   inkscape:connector-curvature="0"
   style="fill:url(#grad0-18);stroke:none;stroke-width:1.22644997;stroke-linecap:butt" />
				</g>
				<g
   id="shape12994-19"
   transform="translate(0,-16.2127)">
					<title
   id="title61">Sheet.12994</title>
					<path
   d="M 22.39,79.99 C 17.91,84.77 14.31,90.32 11.77,96.38 5.07,94.73 0.27,88.79 0,81.82 c 0.23,-7.6 5.91,-13.89 13.37,-14.8 3.52,3.32 6.37,7.3 8.42,11.7 0.2,0.42 0.39,0.85 0.6,1.27 z"
   class="st5"
   id="path63"
   inkscape:connector-curvature="0"
   style="fill:url(#linearGradient4609);stroke:none;stroke-width:1.22644997;stroke-linecap:butt" />
				</g>
				<g
   id="shape12995-23"
   transform="translate(11.7566,-15.7187)">
					<title
   id="title66">Sheet.12995</title>
					<path
   d="M 15.29,96.27 4.2,96.32 C 2.79,96.38 1.37,96.23 0,95.9 2.54,89.83 6.13,84.28 10.62,79.51 c 2.42,5.3 4,10.96 4.67,16.76 z"
   class="st5"
   id="path68"
   inkscape:connector-curvature="0"
   style="fill:url(#linearGradient4611);stroke:none;stroke-width:1.22644997;stroke-linecap:butt" />
				</g>
				<g
   id="shape12996-26"
   transform="translate(30.1809,-1.86142)">
					<title
   id="title71">Sheet.12996</title>
					<ellipse
   cx="12.3359"
   cy="83.957001"
   rx="12.3359"
   ry="12.421"
   class="st6"
   id="ellipse73"
   style="fill:url(#grad0-29);stroke:none;stroke-width:1.22644997;stroke-linecap:butt" />
				</g>
				<g
   id="shape12997-30"
   transform="translate(32.0438,-6.80223)">
					<title
   id="title76">Sheet.12997</title>
					<path
   d="m 0,89.63 c 0.17,2.55 1.25,4.94 3.03,6.75 L 6.37,93 C 5.48,92.09 4.88,90.91 4.7,89.62 H 0 Z M 17.36,80.92 C 15.64,79.41 13.48,78.5 11.2,78.34 v 4.7 c 1.05,0.11 2.02,0.53 2.85,1.18 z m -13.77,0 3.34,3.38 C 7.76,83.65 8.74,83.24 9.78,83.12 V 78.34 C 7.49,78.49 5.32,79.4 3.59,80.92 Z m 11.52,4.35 c 0.63,0.84 1.04,1.84 1.18,2.88 h 4.66 C 20.8,85.86 19.9,83.68 18.39,81.97 Z m -9.27,0 L 2.5,81.89 C 1,83.64 0.12,85.84 0,88.15 H 4.66 C 4.79,87.11 5.2,86.11 5.84,85.27 Z"
   class="st7"
   id="path78"
   inkscape:connector-curvature="0"
   style="fill:#8bb6e1;stroke:none;stroke-width:1.22644997;stroke-linecap:butt" />
				</g>
				<g
   id="shape12998-32"
   transform="translate(43.2665,-13.9147)">
					<title
   id="title81">Sheet.12998</title>
					<path
   d="M 7.82,92.63 C 7.67,92.26 7.25,92.07 6.87,92.21 L 0,95.01 0.53,96.38 7.41,93.63 c 0.37,-0.14 0.58,-0.56 0.43,-0.95 z"
   class="st8"
   id="path83"
   inkscape:connector-curvature="0"
   style="fill:#ef414a;stroke:none;stroke-width:1.22644997;stroke-linecap:butt" />
				</g>
				<g
   id="shape12999-34"
   transform="translate(40.5177,-12.2601)">
					<title
   id="title86">Sheet.12999</title>
					<ellipse
   cx="1.99919"
   cy="94.355698"
   rx="1.99919"
   ry="2.02228"
   class="st9"
   id="ellipse88"
   style="fill:#505050;stroke:none;stroke-width:1.22644997;stroke-linecap:butt" />
				</g>
			</g>
		</g>
	</g>
</svg>
